assets/misc-grey/MiscGrey15.svg

<svg width="49" height="36" viewBox="0 0 49 36" fill="none" xmlns="http://www.w3.org/2000/svg">
<path fill-rule="evenodd" clip-rule="evenodd" d="M24.869 25.2001C21.121 25.2001 18.072 22.1501 18.072 18.4001C18.072 14.6501 21.121 11.6001 24.869 11.6001C28.617 11.6001 31.666 14.6501 31.666 18.4001C31.666 22.1501 28.617 25.2001 24.869 25.2001ZM24.869 8.60005C19.467 8.60005 15.072 13.0001 15.072 18.4001C15.072 23.8001 19.467 28.2001 24.869 28.2001C30.271 28.2001 34.666 23.8001 34.666 18.4001C34.666 13.0001 30.271 8.60005 24.869 8.60005ZM45.511 30.8101C45.539 31.4601 45.436 31.9601 45.235 32.1401C45.06 32.3001 44.708 32.2801 44.652 32.2701C44.558 32.2501 44.479 32.2001 44.365 32.2501C43.99 32.2501 6.851 32.3201 4.49 32.2501C4.14 32.2401 4.036 32.1201 3.997 32.0801C3.774 31.8401 3.69 31.2901 3.706 30.9001V11.7601C3.706 10.9001 3.906 10.2701 4.301 9.89005C4.813 9.40005 5.587 9.38005 5.74 9.38005C5.756 9.38005 5.766 9.38005 5.767 9.38005C5.803 9.38005 5.84 9.38005 5.876 9.38005H12.707C13.181 9.38005 13.626 9.16005 13.91 8.78005C13.929 8.75005 15.871 6.15005 17.504 4.10005C18.223 3.20005 18.5 3.16005 19.009 3.16005C19.299 3.16005 20.05 3.15005 21.038 3.15005C23.931 3.13005 28.771 3.11005 30.13 3.14005C31.153 3.16005 31.559 3.63005 32.029 4.18005L32.181 4.35005C32.405 4.61005 34.461 7.22005 35.704 8.81005C35.989 9.17005 36.424 9.38005 36.885 9.38005H43.311C44.934 9.38005 45.402 10.7501 45.514 11.2201C45.497 13.0101 45.367 27.4301 45.511 30.8101ZM48.516 11.0901C48.517 11.0001 48.509 10.9101 48.495 10.8301C48.237 9.29005 46.822 6.38005 43.311 6.38005H37.615C36.574 5.06005 34.671 2.64005 34.428 2.36005L34.302 2.22005C33.69 1.51005 32.553 0.190054 30.192 0.140054C28.796 0.110054 23.931 0.130054 21.023 0.150054C20.042 0.150054 19.297 0.160054 19.009 0.160054C17.183 0.160054 16.149 0.990054 15.158 2.23005C13.976 3.71005 12.639 5.48005 11.957 6.38005H5.917C5.496 6.37005 3.685 6.37005 2.272 7.68005C1.233 8.65005 0.706003 10.0201 0.706003 11.7601L0.709003 30.8101C0.696003 31.0101 0.615003 32.8201 1.772 34.0901C2.426 34.8101 3.333 35.2101 4.395 35.2501C5.221 35.2701 9.991 35.2801 15.968 35.2801C27.148 35.2801 42.551 35.2501 44.265 35.2501C44.761 35.3101 46.096 35.3601 47.188 34.4201C48.135 33.6001 48.579 32.3401 48.508 30.6901C48.361 27.2301 48.514 11.2501 48.516 11.0901Z" fill="#1A1919"/>
</svg>

<svg xmlns="http://www.w3.org/2000/svg" viewBox="0 0 49 36"><path fill-rule="evenodd" d="M24.869 25.2c-3.748 0-6.797-3.05-6.797-6.8s3.049-6.8 6.797-6.8c3.748 0 6.797 3.05 6.797 6.8s-3.049 6.8-6.797 6.8zm0-16.6c-5.402 0-9.797 4.4-9.797 9.8s4.395 9.8 9.797 9.8c5.402 0 9.797-4.4 9.797-9.8s-4.395-9.8-9.797-9.8zm20.642 22.21c.028.65-.075 1.15-.276 1.33-.175.16-.527.14-.583.13-.094-.02-.173-.07-.287-.02-.375 0-37.514.07-39.875 0-.35-.01-.454-.13-.493-.17-.223-.24-.307-.79-.291-1.18V11.76c0-.86.2-1.49.595-1.87.512-.49 1.286-.51 1.439-.51H12.707c.474 0 .919-.22 1.203-.6.019-.03 1.961-2.63 3.594-4.68.719-.9.996-.94 1.505-.94.29 0 1.041-.01 2.029-.01 2.893-.02 7.733-.04 9.092-.01 1.023.02 1.429.49 1.899 1.04l.152.17c.224.26 2.28 2.87 3.523 4.46.285.36.72.57 1.181.57h6.426c1.623 0 2.091 1.37 2.203 1.84-.017 1.79-.147 16.21-.003 19.59zm3.005-19.72c.001-.09-.007-.18-.021-.26-.258-1.54-1.673-4.45-5.184-4.45h-5.696c-1.041-1.32-2.944-3.74-3.187-4.02l-.126-.14c-.612-.71-1.749-2.03-4.11-2.08-1.396-.03-6.261-.01-9.169.01-.981 0-1.726.01-2.014.01-1.826 0-2.86.83-3.851 2.07-1.182 1.48-2.519 3.25-3.201 4.15h-6.04c-.421-.01-2.232-.01-3.645 1.3-1.039.97-1.566 2.34-1.566 4.08l.003 19.05c-.013.2-.094 2.01 1.063 3.28.654.72 1.561 1.12 2.623 1.16.826.02 5.596.03 11.573.03 11.18 0 26.583-.03 28.297-.03.496.06 1.831.11 2.923-.83.947-.82 1.391-2.08 1.32-3.73-.147-3.46.006-19.44.008-19.6z" clip-rule="evenodd"/></svg>
